X:197
T:Petticoat Loose THO1.198
M:6/8
L:1/8
Z:vmp. Peter Dunk 2012.from a transcription by Fynn Titford-Mock 2006
B:Thompson's Compleat Collection of 200 Favourite Country Dances Vol.I,1758
Q:3/8=100
K:Gm
A|B2 G AFD| B2 G AFD|F3-F2 A|F3-F2 A|B2 G AFD|B2 G AFD|G3-G2 B|G3-G2:|
|:Bcd cBA|BAG AFD|fgf fcA|fgf fcA|Bcd cBA|BAG AGF|gag gdB|gag g2 A|
Bcd cBA|BAG AFD|fgf fcA|fgf fcA|Bcd cde|dcB AG^F|G3-G2 B|G3-G2:|

